svg/m/DZ.svg

<svg fill="none" height="15" viewBox="0 0 20 15" width="20" xmlns="http://www.w3.org/2000/svg" xmlns:xlink="http://www.w3.org/1999/xlink"><mask id="a" height="15" maskUnits="userSpaceOnUse" width="20" x="0" y="0"><path d="m0 0h20v15h-20z" fill="#fff"/></mask><g clip-rule="evenodd" fill-rule="evenodd" mask="url(#a)"><path d="m10 0h10v15h-10z" fill="#f7fcff"/><path d="m0 0h10v15h-10z" fill="#36a400"/><path d="m10 9.99872c-1.53761-.28901-1.88255-1.62454-1.88255-2.61826s.57052-2.21186 1.88255-2.44194c1.3121-.23008 3.1277.69039 3.1277.69039s-1.6739-1.8678-3.42599-1.8678c-1.75212 0-3.42595 1.31471-3.42595 3.61935s1.20072 3.81854 3.42595 3.81854c2.22519 0 3.32399-2.34865 3.32399-2.34865s-1.488 1.43735-3.0257 1.14837zm.5848-3.40072-1.1238-.00814 1.0945.77998-.3829 1.25931 1.1395-.68795 1.2886.72004-.6797-1.28078 1.039-.7906-1.0641-.00124-.6277-1.10662z" fill="#f00"/></g></svg>

<svg width="20" height="15" viewBox="0 0 20 15" fill="none" xmlns="http://www.w3.org/2000/svg">
<mask id="mask0" mask-type="alpha" maskUnits="userSpaceOnUse" x="0" y="0" width="20" height="15">
<rect width="20" height="15" fill="white"/>
</mask>
<g mask="url(#mask0)">
<path fill-rule="evenodd" clip-rule="evenodd" d="M10 0H20V15H10V0Z" fill="#F7FCFF"/>
<path fill-rule="evenodd" clip-rule="evenodd" d="M0 0H10V15H0V0Z" fill="#36A400"/>
<path fill-rule="evenodd" clip-rule="evenodd" d="M10 9.99872C8.46239 9.70971 8.11745 8.37418 8.11745 7.38046C8.11745 6.38674 8.68797 5.1686 10 4.93852C11.3121 4.70844 13.1277 5.62891 13.1277 5.62891C13.1277 5.62891 11.4538 3.76111 9.70171 3.76111C7.94959 3.76111 6.27576 5.07582 6.27576 7.38046C6.27576 9.6851 7.47648 11.199 9.70171 11.199C11.9269 11.199 13.0257 8.85035 13.0257 8.85035C13.0257 8.85035 11.5377 10.2877 10 9.99872ZM10.5848 6.598L9.461 6.58986L10.5555 7.36984L10.1726 8.62915L11.3121 7.9412L12.6007 8.66124L11.921 7.38046L12.96 6.58986L11.8959 6.58862L11.2682 5.482L10.5848 6.598Z" fill="#FF0000"/>
</g>
</svg>
